static/assets/images/products/kubeshield/kubeshield-enterprise-icon.svg

<svg width="64" height="64" viewBox="0 0 64 64" fill="none" xmlns="http://www.w3.org/2000/svg">
<g clip-path="url(#clip0)">
<path d="M32.2937 46C31.5699 45.7066 30.8848 45.3258 30.2534 44.8662C25.8169 41.9962 22.3799 38.1676 19.655 33.6817C16.2425 28.046 14.0848 21.741 13.3288 15.1961C12.9816 12.3561 12.9092 9.48921 13.1125 6.63526C13.1398 6.27102 13.2549 6.18065 13.6081 6.1916C15.5443 6.24364 17.4586 6.1341 19.3044 5.46314C20.7641 4.88563 22.1372 4.10969 23.385 3.15723C24.8775 2.09191 26.3974 1.08137 28.1803 0.552814C29.5113 0.151056 30.8984 -0.0338822 32.2882 0.00509274C32.2882 0.938958 32.2882 1.87008 32.2882 2.80395C31.0461 2.81732 29.813 3.01577 28.6294 3.39275C27.1013 3.94047 25.8169 4.90446 24.5215 5.83559C22.0102 7.63759 19.2606 8.78233 16.155 8.9795C15.7826 9.00141 15.8428 9.22051 15.8401 9.4396C15.8175 12.2346 16.0707 15.0251 16.596 17.7704C17.8448 24.2116 20.2766 30.1435 24.2641 35.3934C26.4455 38.3478 29.1719 40.8576 32.2964 42.7876C32.2854 43.8593 32.2845 44.9301 32.2937 46Z" fill="#2516C7"/>
<path d="M32.2938 46C32.2938 44.9283 32.2938 43.8566 32.2938 42.7849C32.3787 42.741 32.469 42.7 32.5512 42.6479C35.4367 40.8051 37.9773 38.4713 40.0577 35.7521C43.8151 30.9267 46.2305 25.4714 47.6218 19.5423C48.3855 16.231 48.7687 12.8433 48.7638 9.44506C48.7638 9.11642 48.6843 8.99592 48.3365 8.97401C47.7669 8.93127 47.2001 8.85722 46.6386 8.75219C44.0314 8.30853 41.7557 7.10902 39.6716 5.54802C37.4807 3.90485 35.1145 2.74916 32.2773 2.80941C32.2773 1.87555 32.2773 0.94442 32.2773 0.010555C34.8266 -0.079702 37.3414 0.620495 39.4771 2.01521C40.3809 2.60401 41.2709 3.21472 42.15 3.83913C44.4411 5.44832 47.1861 6.28401 49.9852 6.22445H50.4261C51.4339 6.22445 51.4476 6.22445 51.4941 7.21035C51.9761 17.4746 49.4648 26.9283 43.7439 35.481C41.1801 39.393 37.7964 42.701 33.8274 45.1757C33.3551 45.5174 32.8394 45.7947 32.2938 46V46Z" fill="#2516C7"/>
<path d="M29.8371 37.3542C27.7758 35.4409 25.9979 33.2434 24.5571 30.8281C21.4808 25.7776 19.559 20.1094 18.9293 14.2294C18.8389 13.4352 18.7951 12.6355 18.7293 11.8386C18.7129 11.6305 18.7129 11.4826 19.0032 11.4251C20.519 11.0981 21.9869 10.579 23.3713 9.88049C25.6227 12.5713 27.4841 15.5657 28.9005 18.7755C31.2557 24.1853 31.7056 30.2342 30.1767 35.9329C30.0425 36.4012 29.8344 36.8558 29.8371 37.3542Z" fill="#2516C7"/>
<path d="M40.1422 9.28613C41.835 10.2801 43.6729 11.0027 45.5893 11.4277C45.9536 11.5017 45.8632 11.7454 45.844 11.9508C45.7278 14.3181 45.3932 16.6696 44.8444 18.9753C43.445 24.9017 40.9556 30.2995 37.0147 34.9825C36.3269 35.8337 35.5663 36.6236 34.7417 37.3432C34.742 37.1782 34.7937 37.0173 34.8896 36.8831C36.1091 34.8195 37.1184 32.6387 37.902 30.3734C38.8329 27.7196 39.4909 24.9777 39.8656 22.1904C40.1601 20.1952 40.3193 18.1823 40.3421 16.1655C40.3394 13.876 40.3805 11.5756 40.1422 9.28613Z" fill="#2516C7"/>
<path d="M29.8369 37.3541C29.8369 36.8557 30.0423 36.4011 30.1682 35.9328C31.6971 30.2341 31.2472 24.1852 28.892 18.7754C27.4756 15.5656 25.6142 12.5712 23.3628 9.88043C24.4878 9.2532 25.5743 8.55909 26.6163 7.80183C26.8901 7.59644 27.0161 7.61287 27.2051 7.91138C28.3513 9.6791 29.3365 11.5461 30.1491 13.4899C32.4988 19.1588 33.2464 25.0605 32.7069 31.1512C32.4933 33.5279 32.0968 35.8846 31.5211 38.2004C31.5016 38.371 31.4374 38.5335 31.3349 38.6714C30.7993 38.2753 30.2982 37.8346 29.8369 37.3541V37.3541Z" fill="#E86830"/>
<path d="M40.1426 9.28627C40.3808 11.5757 40.3398 13.8762 40.3425 16.1739C40.3197 18.1906 40.1605 20.2035 39.866 22.1988C39.4912 24.9861 38.8333 27.7279 37.9024 30.3818C37.1187 32.647 36.1095 34.8279 34.8899 36.8914C34.794 37.0257 34.7424 37.1865 34.7421 37.3515V37.3515C34.7175 37.3511 34.6931 37.3557 34.6704 37.3649C34.6476 37.3742 34.6269 37.3879 34.6095 37.4052C34.5922 37.4226 34.5785 37.4433 34.5692 37.466C34.56 37.4888 34.5555 37.5132 34.5558 37.5377C34.0857 38.0278 33.5642 38.4657 33.0003 38.8441C32.9811 38.8212 32.959 38.801 32.9346 38.7838C34.3205 36.024 35.4013 33.1212 36.1579 30.1271C37.1263 26.1697 37.4955 22.0894 37.2534 18.0224C37.0108 14.0241 36.2476 10.0746 34.983 6.27381C34.9694 6.22725 34.9639 6.17795 34.9338 6.02185C36.8946 6.82152 38.4118 8.23191 40.1426 9.28627Z" fill="#E86830"/>
<path d="M34.5445 37.5349C34.5441 37.5103 34.5486 37.4859 34.5579 37.4632C34.5671 37.4404 34.5808 37.4197 34.5982 37.4024C34.6155 37.385 34.6362 37.3713 34.659 37.3621C34.6817 37.3528 34.7061 37.3483 34.7307 37.3487L34.5445 37.5349Z" fill="#326CE5"/>
<path d="M32.9897 38.8413L32.9048 38.8933C32.9048 38.8549 32.9185 38.8193 32.924 38.781C32.9484 38.7982 32.9705 38.8184 32.9897 38.8413V38.8413Z" fill="#326CE5"/>
<path d="M5.98633 57.9395H2.48242V60.5645H6.57812V61.748H1V53.2168H6.53711V54.4121H2.48242V56.7676H5.98633V57.9395Z" fill="#FC6011"/>
<path d="M9.81875 55.4082L9.85977 56.1406C10.3285 55.5742 10.9438 55.291 11.7055 55.291C13.0258 55.291 13.6977 56.0469 13.7211 57.5586V61.748H12.2973V57.6406C12.2973 57.2383 12.2094 56.9414 12.0336 56.75C11.8617 56.5547 11.5785 56.457 11.184 56.457C10.6098 56.457 10.182 56.7168 9.90078 57.2363V61.748H8.47695V55.4082H9.81875Z" fill="#FC6011"/>
<path d="M17.8113 53.8672V55.4082H18.9305V56.4629H17.8113V60.002C17.8113 60.2441 17.8582 60.4199 17.952 60.5293C18.0496 60.6348 18.2215 60.6875 18.4676 60.6875C18.6316 60.6875 18.7977 60.668 18.9656 60.6289V61.7305C18.6414 61.8203 18.3289 61.8652 18.0281 61.8652C16.9344 61.8652 16.3875 61.2617 16.3875 60.0547V56.4629H15.3445V55.4082H16.3875V53.8672H17.8113Z" fill="#FC6011"/>
<path d="M23.6652 61.8652C22.7629 61.8652 22.0305 61.582 21.468 61.0156C20.9094 60.4453 20.6301 59.6875 20.6301 58.7422V58.5664C20.6301 57.9336 20.7512 57.3691 20.9934 56.873C21.2395 56.373 21.5832 55.9844 22.0246 55.707C22.466 55.4297 22.9582 55.291 23.5012 55.291C24.3645 55.291 25.0305 55.5664 25.4992 56.1172C25.9719 56.668 26.2082 57.4473 26.2082 58.4551V59.0293H22.0656C22.1086 59.5527 22.2824 59.9668 22.5871 60.2715C22.8957 60.5762 23.2824 60.7285 23.7473 60.7285C24.3996 60.7285 24.9309 60.4648 25.341 59.9375L26.1086 60.6699C25.8547 61.0488 25.5148 61.3438 25.0891 61.5547C24.6672 61.7617 24.1926 61.8652 23.6652 61.8652ZM23.4953 56.4336C23.1047 56.4336 22.7883 56.5703 22.5461 56.8438C22.3078 57.1172 22.1555 57.498 22.0891 57.9863H24.802V57.8809C24.7707 57.4043 24.6437 57.0449 24.4211 56.8027C24.1984 56.5566 23.8898 56.4336 23.4953 56.4336Z" fill="#FC6011"/>
<path d="M31.4879 56.709C31.3004 56.6777 31.107 56.6621 30.9078 56.6621C30.2555 56.6621 29.816 56.9121 29.5895 57.4121V61.748H28.1656V55.4082H29.525L29.5602 56.1172C29.9039 55.5664 30.3805 55.291 30.9898 55.291C31.193 55.291 31.3609 55.3184 31.4937 55.373L31.4879 56.709Z" fill="#FC6011"/>
<path d="M38.7891 58.6426C38.7891 59.623 38.5664 60.4062 38.1211 60.9922C37.6758 61.5742 37.0781 61.8652 36.3281 61.8652C35.6328 61.8652 35.0762 61.6367 34.6582 61.1797V64.1855H33.2344V55.4082H34.5469L34.6055 56.0527C35.0234 55.5449 35.5918 55.291 36.3105 55.291C37.084 55.291 37.6895 55.5801 38.127 56.1582C38.5684 56.7324 38.7891 57.5312 38.7891 58.5547V58.6426ZM37.3711 58.5195C37.3711 57.8867 37.2441 57.3848 36.9902 57.0137C36.7402 56.6426 36.3809 56.457 35.9121 56.457C35.3301 56.457 34.9121 56.6973 34.6582 57.1777V59.9902C34.916 60.4824 35.3379 60.7285 35.9238 60.7285C36.377 60.7285 36.7305 60.5469 36.9844 60.1836C37.2422 59.8164 37.3711 59.2617 37.3711 58.5195Z" fill="#FC6011"/>
<path d="M44.1684 56.709C43.9809 56.6777 43.7875 56.6621 43.5883 56.6621C42.9359 56.6621 42.4965 56.9121 42.2699 57.4121V61.748H40.8461V55.4082H42.2055L42.2406 56.1172C42.5844 55.5664 43.0609 55.291 43.6703 55.291C43.8734 55.291 44.0414 55.3184 44.1742 55.373L44.1684 56.709Z" fill="#FC6011"/>
<path d="M47.4324 61.748H46.0086V55.4082H47.4324V61.748ZM45.9207 53.7617C45.9207 53.543 45.9891 53.3613 46.1258 53.2168C46.2664 53.0723 46.4656 53 46.7234 53C46.9813 53 47.1805 53.0723 47.3211 53.2168C47.4617 53.3613 47.532 53.543 47.532 53.7617C47.532 53.9766 47.4617 54.1562 47.3211 54.3008C47.1805 54.4414 46.9813 54.5117 46.7234 54.5117C46.4656 54.5117 46.2664 54.4414 46.1258 54.3008C45.9891 54.1562 45.9207 53.9766 45.9207 53.7617Z" fill="#FC6011"/>
<path d="M53.3918 60.0254C53.3918 59.7715 53.2863 59.5781 53.0754 59.4453C52.8684 59.3125 52.5227 59.1953 52.0383 59.0938C51.5539 58.9922 51.1496 58.8633 50.8254 58.707C50.1145 58.3633 49.759 57.8652 49.759 57.2129C49.759 56.666 49.9895 56.209 50.4504 55.8418C50.9113 55.4746 51.4973 55.291 52.2082 55.291C52.966 55.291 53.5773 55.4785 54.0422 55.8535C54.5109 56.2285 54.7453 56.7148 54.7453 57.3125H53.3215C53.3215 57.0391 53.2199 56.8125 53.0168 56.6328C52.8137 56.4492 52.5441 56.3574 52.2082 56.3574C51.8957 56.3574 51.6398 56.4297 51.4406 56.5742C51.2453 56.7188 51.1477 56.9121 51.1477 57.1543C51.1477 57.373 51.2395 57.543 51.423 57.6641C51.6066 57.7852 51.9777 57.9082 52.5363 58.0332C53.0949 58.1543 53.5324 58.3008 53.8488 58.4727C54.1691 58.6406 54.4055 58.8438 54.5578 59.082C54.7141 59.3203 54.7922 59.6094 54.7922 59.9492C54.7922 60.5195 54.5559 60.9824 54.0832 61.3379C53.6105 61.6895 52.9914 61.8652 52.2258 61.8652C51.7062 61.8652 51.2434 61.7715 50.8371 61.584C50.4309 61.3965 50.1145 61.1387 49.8879 60.8105C49.6613 60.4824 49.548 60.1289 49.548 59.75H50.9309C50.9504 60.0859 51.0773 60.3457 51.3117 60.5293C51.5461 60.709 51.8566 60.7988 52.2434 60.7988C52.6184 60.7988 52.9035 60.7285 53.0988 60.5879C53.2941 60.4434 53.3918 60.2559 53.3918 60.0254Z" fill="#FC6011"/>
<path d="M59.6793 61.8652C58.777 61.8652 58.0445 61.582 57.482 61.0156C56.9234 60.4453 56.6441 59.6875 56.6441 58.7422V58.5664C56.6441 57.9336 56.7652 57.3691 57.0074 56.873C57.2535 56.373 57.5973 55.9844 58.0387 55.707C58.4801 55.4297 58.9723 55.291 59.5152 55.291C60.3785 55.291 61.0445 55.5664 61.5133 56.1172C61.9859 56.668 62.2223 57.4473 62.2223 58.4551V59.0293H58.0797C58.1227 59.5527 58.2965 59.9668 58.6012 60.2715C58.9098 60.5762 59.2965 60.7285 59.7613 60.7285C60.4137 60.7285 60.9449 60.4648 61.3551 59.9375L62.1227 60.6699C61.8688 61.0488 61.5289 61.3438 61.1031 61.5547C60.6813 61.7617 60.2066 61.8652 59.6793 61.8652ZM59.5094 56.4336C59.1188 56.4336 58.8023 56.5703 58.5602 56.8438C58.3219 57.1172 58.1695 57.498 58.1031 57.9863H60.816V57.8809C60.7848 57.4043 60.6578 57.0449 60.4352 56.8027C60.2125 56.5566 59.9039 56.4336 59.5094 56.4336Z" fill="#FC6011"/>
</g>
<defs>
<clipPath id="clip0">
<rect width="64" height="64" fill="white"/>
</clipPath>
</defs>
</svg>

<svg xmlns="http://www.w3.org/2000/svg" xmlns:xlink="http://www.w3.org/1999/xlink" width="64" height="64" fill="none" xmlns:v="https://vecta.io/nano"><g clip-path="url(#A)"><g fill="#2516c7"><path d="M32.294 46c-.724-.293-1.409-.674-2.04-1.134-4.436-2.87-7.873-6.699-10.598-11.184-3.413-5.636-5.57-11.941-6.326-18.486-.347-2.84-.42-5.707-.216-8.561.027-.364.142-.455.496-.444 1.936.052 3.851-.058 5.696-.728 1.46-.578 2.833-1.353 4.081-2.306 1.492-1.065 3.012-2.076 4.795-2.604a12.96 12.96 0 0 1 4.108-.548v2.799a12.5 12.5 0 0 0-3.659.589c-1.528.548-2.812 1.512-4.108 2.443-2.511 1.802-5.261 2.947-8.366 3.144-.372.022-.312.241-.315.46a42.5 42.5 0 0 0 .756 8.331c1.249 6.441 3.681 12.373 7.668 17.623 2.181 2.954 4.908 5.464 8.032 7.394L32.294 46z"/><path d="M32.294 46v-3.215l.257-.137c2.886-1.843 5.426-4.177 7.506-6.896 3.757-4.825 6.173-10.281 7.564-16.21a44.62 44.62 0 0 0 1.142-10.097c0-.329-.08-.449-.427-.471a15.57 15.57 0 0 1-1.698-.222c-2.607-.444-4.883-1.643-6.967-3.204-2.191-1.643-4.557-2.799-7.394-2.739V.011a12.37 12.37 0 0 1 7.2 2.005A80.55 80.55 0 0 1 42.15 3.84c2.291 1.609 5.036 2.445 7.835 2.385h.441c1.008 0 1.022 0 1.068.986.482 10.264-2.029 19.718-7.75 28.271a32.27 32.27 0 0 1-9.916 9.695 6.52 6.52 0 0 1-1.534.824h0zm-2.457-8.646a29.58 29.58 0 0 1-5.28-6.526 40.12 40.12 0 0 1-5.628-16.599l-.2-2.391c-.016-.208-.016-.356.274-.413a18.23 18.23 0 0 0 4.368-1.545c2.251 2.691 4.113 5.685 5.529 8.895 2.355 5.41 2.805 11.459 1.276 17.157-.134.468-.342.923-.34 1.421zM40.142 9.286a18.8 18.8 0 0 0 5.447 2.142c.364.074.274.318.255.523-.116 2.367-.451 4.719-1 7.025-1.399 5.926-3.889 11.324-7.83 16.007-.688.851-1.448 1.641-2.273 2.361a.79.79 0 0 1 .148-.46 35.78 35.78 0 0 0 3.012-6.51 41.4 41.4 0 0 0 1.964-8.183 44.72 44.72 0 0 0 .477-6.025c-.003-2.29.038-4.59-.2-6.879z"/></g><g fill="#e86830"><path d="M29.837 37.354c0-.498.205-.953.331-1.421a26.06 26.06 0 0 0-1.276-17.157c-1.416-3.21-3.278-6.204-5.529-8.895a32.24 32.24 0 0 0 3.253-2.079c.274-.205.4-.189.589.11a35.23 35.23 0 0 1 2.944 5.579c2.35 5.669 3.097 11.571 2.558 17.661-.214 2.377-.61 4.733-1.186 7.049-.02.171-.084.333-.186.471a11.8 11.8 0 0 1-1.498-1.317h0zM40.143 9.286c.238 2.289.197 4.59.2 6.888a44.67 44.67 0 0 1-.477 6.025 41.4 41.4 0 0 1-1.964 8.183c-.784 2.265-1.793 4.446-3.013 6.51a.8.8 0 0 0-.148.46h0c-.025 0-.049.004-.072.013a.18.18 0 0 0-.101.101c-.009.023-.014.047-.013.072A9.47 9.47 0 0 1 33 38.844c-.019-.023-.041-.043-.066-.06a42.45 42.45 0 0 0 3.223-8.657 40.74 40.74 0 0 0 1.096-12.105c-.243-3.998-1.006-7.948-2.27-11.749-.014-.047-.019-.096-.049-.252 1.961.8 3.478 2.21 5.209 3.264z"/></g><g fill="#326ce5"><path d="M34.545 37.535c0-.025.004-.049.013-.072a.18.18 0 0 1 .101-.101c.023-.009.047-.014.072-.013l-.186.186zm-1.555 1.306l-.085.052c0-.038.014-.074.019-.112a.34.34 0 0 1 .066.06h0z"/></g><g fill="#fc6011"><path d="M5.986 57.94H2.482v2.625h4.096v1.183H1v-8.531h5.537v1.195H2.482v2.355h3.504v1.172zm3.833-2.532l.041.732c.469-.566 1.084-.85 1.846-.85 1.32 0 1.992.756 2.016 2.268v4.189h-1.424V57.64c0-.402-.088-.699-.264-.891s-.455-.293-.85-.293c-.574 0-1.002.26-1.283.779v4.512H8.477v-6.34h1.342zm7.992-1.541v1.541h1.119v1.055h-1.119v3.539c0 .242.047.418.141.527s.269.158.516.158a2.19 2.19 0 0 0 .498-.059v1.102a3.5 3.5 0 0 1-.937.135c-1.094 0-1.641-.604-1.641-1.811v-3.592h-1.043v-1.055h1.043v-1.541h1.424zm5.854 7.998c-.902 0-1.635-.283-2.197-.85s-.838-1.328-.838-2.273v-.176c0-.633.121-1.197.363-1.693a2.8 2.8 0 0 1 1.031-1.166 2.72 2.72 0 0 1 1.477-.416c.863 0 1.529.275 1.998.826s.709 1.33.709 2.338v.574h-4.143c.043.523.217.938.521 1.242s.695.457 1.16.457c.652 0 1.184-.264 1.594-.791l.768.732a2.58 2.58 0 0 1-1.02.885 3.19 3.19 0 0 1-1.424.311zm-.17-5.432c-.391 0-.707.137-.949.41s-.391.654-.457 1.142h2.713v-.105c-.031-.477-.158-.836-.381-1.078s-.531-.369-.926-.369z"/><use xlink:href="#B"/><path d="M38.789 58.643c0 .98-.223 1.764-.668 2.35a2.14 2.14 0 0 1-1.793.873c-.695 0-1.252-.229-1.67-.686v3.006h-1.424v-8.777h1.313l.059.645c.418-.508.986-.762 1.705-.762.774 0 1.379.289 1.817.867s.662 1.373.662 2.396v.088zm-1.418-.123c0-.633-.127-1.135-.381-1.506a1.22 1.22 0 0 0-1.078-.557c-.582 0-1 .24-1.254.721v2.813c.258.492.68.738 1.266.738a1.22 1.22 0 0 0 1.061-.545c.258-.367.387-.922.387-1.664zm6.797-1.811a3.52 3.52 0 0 0-.58-.047c-.652 0-1.092.25-1.318.75v4.336h-1.424v-6.34h1.359l.035.709c.344-.551.82-.826 1.43-.826.203 0 .371.027.504.082l-.006 1.336zm3.264 5.039h-1.424v-6.34h1.424v6.34zm-1.512-7.986a.76.76 0 0 1 .205-.545c.141-.145.34-.217.598-.217s.457.072.598.217a.75.75 0 0 1 .211.545.74.74 0 0 1-.211.539c-.141.144-.34.211-.598.211s-.457-.07-.598-.211a.73.73 0 0 1-.205-.539zm7.472 6.263c0-.254-.106-.447-.316-.58s-.553-.25-1.037-.352-.889-.23-1.213-.387c-.711-.344-1.066-.842-1.066-1.494 0-.547.23-1.004.691-1.371s1.047-.551 1.758-.551c.758 0 1.369.188 1.834.563a1.78 1.78 0 0 1 .703 1.459h-1.424a.87.87 0 0 0-.305-.68c-.203-.184-.473-.275-.809-.275-.312 0-.568.072-.768.217s-.293.338-.293.58c0 .219.092.389.275.51s.555.244 1.113.369.996.268 1.313.44.557.371.709.609a1.58 1.58 0 0 1 .234.867c0 .57-.236 1.033-.709 1.389s-1.092.527-1.857.527c-.52 0-.982-.094-1.389-.281s-.723-.445-.949-.774a1.83 1.83 0 0 1-.34-1.06h1.383c.02.336.146.596.381.779s.545.27.932.27c.375 0 .66-.07.855-.211a.67.67 0 0 0 .293-.562zm6.287 1.84c-.902 0-1.635-.283-2.197-.85s-.838-1.328-.838-2.273v-.176c0-.633.121-1.197.363-1.693a2.8 2.8 0 0 1 1.031-1.166 2.72 2.72 0 0 1 1.477-.416c.863 0 1.529.275 1.998.826s.709 1.33.709 2.338v.574H58.08c.043.523.217.938.521 1.242s.695.457 1.16.457c.652 0 1.184-.264 1.594-.791l.768.732a2.58 2.58 0 0 1-1.02.885c-.422.207-.896.311-1.424.311zm-.17-5.432c-.391 0-.707.137-.949.41s-.391.654-.457 1.142h2.713v-.105c-.031-.477-.158-.836-.381-1.078s-.531-.369-.926-.369z"/></g></g><defs><clipPath id="A"><path fill="#fff" d="M0 0h64v64H0z"/></clipPath><path id="B" d="M31.488 56.709a3.52 3.52 0 0 0-.58-.047c-.652 0-1.092.25-1.318.75v4.336h-1.424v-6.34h1.359l.035.709c.344-.551.82-.826 1.43-.826.203 0 .371.027.504.082l-.006 1.336z"/></defs></svg>
